X: 409
T: Chongcha wankai chongcha guo
L: 1/8
M: 2/4
K: Bb
f =ef2 [I:setbarnb 1]| 
gg2f' | 
c'> b g f | 
c4 | 
f =ef2 | 
gg2f' | 
c'> b g f | 
gf3 |]

@@@ Tune index: 9283
